T: Steak And Ale
M: 3/4
L: 1/8
K: Dmaj
|: A2 |
F>E D2 A2 | F>E D2 A2 | A2 d2 c2 | A4 (3ABc |
d2 A2 F2 | G2 A2 B2 | (3ABA d2 c2 | d4 :|
|: d2 |
c>B A2 d2 | c>B A2 d2 | c>B A2 G2 | E4 (3ABc |
d3 A F2 | G3 A B2 | .A2 .d2 .c2 | d4 :|
